X:25
T: Humors of Lanacane
C: BB
R: jig
Q: 1/8=320
M: 6/8
L: 1/8
K: Dm
D/E/|"Dm"FEF "C"Gcc|"Edim"^cBc "Dm"d2 e|"F"fga "Am"ecA|"Bb"Bcd "A7"^cGE|
"Dm"FDD ADD | "A"^cDD "Dm"d2 A | "Bb"BAd "Dm"AFD | "C"ECE "Dm"D2 :|
A|"F"a2 f "C"gfe | "Dm"ded "C7"cBA | "Gm"B2 G "F"AGF | "C"EFG E3 |
"Dm"FDD ADD | "A"^cDD "Dm"d2 e | "F"fga "Am"ecA | "C7"BGE "Dm"D2 :|
